src/images/icons/icon-dopprod-4-active.svg

<svg width="39" height="60" viewBox="0 0 39 60" fill="none" xmlns="http://www.w3.org/2000/svg">
<path d="M32.1002 42.7H30.5002C30.5002 38.9 25.5002 34.4 19.1002 34.4C12.7002 34.4 7.7002 38.9 7.7002 42.7H6.2002C6.2002 38 11.7002 32.8 19.2002 32.8C26.6002 32.8 32.1002 38 32.1002 42.7Z" fill="#003067"/>
<path d="M19.2 31.9002C15.4 31.9002 12.3 28.9002 12.3 25.3002C12.3 21.6002 15.4 18.7002 19.2 18.7002C23 18.7002 26.1 21.7002 26.1 25.3002C26 28.9002 22.9 31.9002 19.2 31.9002ZM19.2 20.2002C16.3 20.2002 13.9 22.5002 13.9 25.2002C13.9 27.9002 16.3 30.2002 19.2 30.2002C22.1 30.2002 24.5 27.9002 24.5 25.2002C24.5 22.5002 22.1 20.2002 19.2 20.2002Z" fill="#003067"/>
<path d="M29.2001 33.1001H25.9001V31.5001H29.2001C30.0001 31.5001 30.7001 30.8001 30.7001 30.0001V26.9001H32.2001V30.0001C32.2001 31.7001 30.8001 33.1001 29.2001 33.1001ZM12.6001 33.1001H9.2001C7.5001 33.1001 6.1001 31.7001 6.1001 30.0001V26.9001H7.7001V30.0001C7.7001 30.8001 8.4001 31.5001 9.2001 31.5001H12.5001V33.1001H12.6001ZM32.2001 22.3001H30.6001V19.2001C30.6001 18.4001 29.9001 17.7001 29.1001 17.7001H25.8001V16.1001H29.2001C30.9001 16.1001 32.3001 17.5001 32.3001 19.2001V22.3001H32.2001ZM7.8001 22.3001H6.2001V19.2001C6.2001 17.5001 7.6001 16.1001 9.3001 16.1001H12.6001V17.7001H9.2001C8.4001 17.7001 7.7001 18.4001 7.7001 19.2001V22.3001H7.8001Z" fill="#003067"/>
<path d="M33.7 59.7H4.7C2.1 59.7 0 57.7 0 55.1V4.6C0 2.1 2.1 0 4.7 0H33.6C36.2 0 38.3 2 38.3 4.6V55.2C38.3 57.7 36.2 59.7 33.7 59.7ZM4.7 1.6C3 1.6 1.6 2.9 1.6 4.6V55.2C1.6 56.8 3 58.2 4.7 58.2H33.6C35.3 58.2 36.7 56.9 36.7 55.2V4.6C36.7 3 35.3 1.6 33.6 1.6H4.7Z" fill="#003067"/>
</svg>

<svg xmlns="http://www.w3.org/2000/svg" width="39" height="60" fill="none" viewBox="0 0 39 60">
	<path fill="#003067" d="M32.1 42.7h-1.6c0-3.8-5-8.3-11.4-8.3S7.7 38.9 7.7 42.7H6.2c0-4.7 5.5-9.9 13-9.9 7.4 0 12.9 5.2 12.9 9.9zM19.2 31.9c-3.8 0-6.9-3-6.9-6.6 0-3.7 3.1-6.6 6.9-6.6 3.8 0 6.9 3 6.9 6.6-.1 3.6-3.2 6.6-6.9 6.6zm0-11.7c-2.9 0-5.3 2.3-5.3 5s2.4 5 5.3 5 5.3-2.3 5.3-5-2.4-5-5.3-5zM29.2 33.1h-3.3v-1.6h3.3c.8 0 1.5-.7 1.5-1.5v-3.1h1.5V30c0 1.7-1.4 3.1-3 3.1zm-16.6 0H9.2c-1.7 0-3.1-1.4-3.1-3.1v-3.1h1.6V30c0 .8.7 1.5 1.5 1.5h3.3v1.6h.1zm19.6-10.8h-1.6v-3.1c0-.8-.7-1.5-1.5-1.5h-3.3v-1.6h3.4c1.7 0 3.1 1.4 3.1 3.1v3.1h-.1zm-24.4 0H6.2v-3.1c0-1.7 1.4-3.1 3.1-3.1h3.3v1.6H9.2c-.8 0-1.5.7-1.5 1.5v3.1h.1z"/>
	<path fill="#003067" d="M33.7 59.7h-29c-2.6 0-4.7-2-4.7-4.6V4.6C0 2.1 2.1 0 4.7 0h28.9c2.6 0 4.7 2 4.7 4.6v50.6c0 2.5-2.1 4.5-4.6 4.5zM4.7 1.6c-1.7 0-3.1 1.3-3.1 3v50.6c0 1.6 1.4 3 3.1 3h28.9c1.7 0 3.1-1.3 3.1-3V4.6c0-1.6-1.4-3-3.1-3H4.7z"/>
</svg>
